**kern	**silbe	**kern	**silbe
*ICvox	*	*ICvox	*
*F:	*	*F:	*
*M4/4	*	*M4/4	*
*clefG2	*	*clefG2	*
r;	.	r;	.
=1	=1	=1	=1
1r	.	1r	.
=2	=2	=2	=2
1r	.	1r	.
=3	=3	=3	=3
16G	When	1r	.
8G	are	.	.
16G	you	.	.
16B-	gon-	.	.
16B-	-na	.	.
8d	come	.	.
4e	down	.	.
4r	.	.	.
=4	=4	=4	=4
16A	When	1r	.
8A	are	.	.
16A	you	.	.
16c	go-	.	.
16c	-ing	.	.
16c	to	.	.
16[d	land	.	.
4d]	_	.	.
8r	.	.	.
16r	.	.	.
16F	I	.	.
=5	=5	=5	=5
16G	should	1r	.
8G	have	.	.
16[B-	stayed	.	.
16B-]	_	.	.
16B-	on	.	.
16B-	the	.	.
16[c	farm	.	.
8c]	_	.	.
16r	.	.	.
16A	I	.	.
16B-	should	.	.
8.G	have	.	.
=6	=6	=6	=6
16F	lis-	1r	.
16F	-tened	.	.
16F	to	.	.
16[A	my	.	.
16A]	_	.	.
16F	old	.	.
8f	man	.	.
4r	.	.	.
8r	.	.	.
16r	.	.	.
16d	You	.	.
=7	=7	=7	=7
16b-	know	1r	.
16b-	you	.	.
16b-	can't	.	.
16[b-	hold	.	.
16b-]	_	.	.
16d	me	.	.
16d	fo-	.	.
16[d	-re-	.	.
16d]	_	.	.
8.e	-ver	.	.
8.r	.	.	.
16G	I	.	.
=8	=8	=8	=8
16A	did-	1r	.
16A	-n't	.	.
16A	sign	.	.
16[c	up	.	.
16c]	_	.	.
16c	with	.	.
8[d	you	.	.
8d]	_	.	.
8r	.	.	.
8.r	.	.	.
16E-	I'm	.	.
=9	=9	=9	=9
8G	not	1r	.
16G	a	.	.
16[B-	pre-	.	.
16B-]	_	.	.
16B-	-sent	.	.
16B-	for	.	.
16B-	your	.	.
8c	friends	.	.
16d	to	.	.
16[c	o-	.	.
16c]	_	.	.
16G	-pen	.	.
16r	.	.	.
16E	This	.	.
=10	=10	=10	=10
8F	boy's	1r	.
16F	too	.	.
16[F	young	.	.
16F]	_	.	.
16G	to	.	.
8E	be	.	.
16F	sing-	.	.
8.A	-ing,	.	.
8r	.	.	.
8c	the	.	.
=11	=11	=11	=11
4dd-	blues	1r	.
4f	_	.	.
4.g	_	.	.
8r	.	.	.
=12	=12	=12	=12
1r	.	8.cc	Aah
.	.	16b-	_
.	.	8a-	_
.	.	8g	_
.	.	4f	_
.	.	4r	.
=13	=13	=13	=13
2r	.	4dd-	Aah
.	.	4f	_
4r	.	2g	_
8r	.	.	.
8c	So	.	.
=14	=14	=14	=14
16f	good-	2a	_
8.f	-bye	.	.
16f	ye-	.	.
16c	-llow	.	.
8A	brick	.	.
4e	road	2r	.
8r	.	.	.
16c#	Where	.	.
16c#	the	.	.
=15	=15	=15	=15
16d	dogs	1r	.
8d	of	.	.
16c#	so-	.	.
16d	-ci-	.	.
16B-	-e-	.	.
16F	-ty	.	.
16[A	howl	.	.
4A]	_	.	.
8.r	.	.	.
16d	You	.	.
=16	=16	=16	=16
16a	can't	1r	.
16r	.	.	.
16a	plant	.	.
16r	.	.	.
16a	me	.	.
16b-	in	.	.
16a	your	.	.
16g	pen-	.	.
16r	.	.	.
8.d	-thouse	.	.
8r	.	.	.
16r	.	.	.
16d	I'm	.	.
=17	=17	=17	=17
16e	go-	1r	.
8e	-ing	.	.
16[e	back	.	.
16e]	_	.	.
16f	to	.	.
8g	my	.	.
4f	plough	.	.
8r	.	.	.
16r	.	.	.
16[a	Back	.	.
=18	=18	=18	=18
16a]	_	1r	.
8a	to	.	.
16a	the	.	.
16f	how-	.	.
16d	-ling	.	.
16A	old	.	.
16[e	owl	.	.
16e]	_	.	.
16e	in	.	.
16e	the	.	.
16[e	woods	.	.
16e]	_	.	.
16r	.	.	.
8r	.	.	.
=19	=19	=19	=19
*M2/4	*	*M2/4	*
16f	Hun-	2r	.
16f	-ting	.	.
16f	the	.	.
16[d	hor-	.	.
16d]	_	.	.
16B-	-ny	.	.
8F	back	.	.
=20	=20	=20	=20
*M4/4	*	*M4/4	*
4.A-	toad	1r	.
8r	.	.	.
4r	.	.	.
16A-	Oh	.	.
8G	I've	.	.
16[F	fina-	.	.
=21	=21	=21	=21
16F]	_	1r	.
16F	-lly	.	.
16F	de-	.	.
16[A	-ci-	.	.
16A]	_	.	.
16A	-ded	.	.
8c	my	.	.
16f	fu-	.	.
16f	-ture	.	.
8f	life	.	.
8r	.	.	.
16r	.	.	.
16d	Be-	.	.
=22	=22	=22	=22
*M2/4	*	*M2/4	*
8.f	-yond	2r	.
16f	the	.	.
16f	yel-	.	.
16g	-low	.	.
8e	brick	.	.
=23	=23	=23	=23
*M4/4	*	*M4/4	*
4f	road	4dd-	Aah
4r	.	4f	_
2r	.	4.g	_
.	.	8r	.
=24	=24	=24	=24
1r	.	8.cc	Aah
.	.	16b-	_
.	.	8a-	_
.	.	8g	_
.	.	4f	_
.	.	4r	.
=25	=25	=25	=25
1r	.	4dd-	Aah
.	.	4f	_
.	.	2g	_
=26	=26	=26	=26
1r	.	2a	Aah
.	.	2r	.
=27	=27	=27	=27
16G	What	1r	.
8G	do	.	.
16G	you	.	.
8B-	think	.	.
16B-	you'll	.	.
16[e	do	.	.
16e]	then?	.	.
8.c	_	.	.
8r	.	.	.
16r	.	.	.
16F	I	.	.
=28	=28	=28	=28
16A	bet	1r	.
16A	that'll	.	.
16A	shoot	.	.
16[c	down	.	.
16c]	_	.	.
16c	the	.	.
8[d	pla-	.	.
8d]	-ne	.	.
8r	.	.	.
8r	.	.	.
16E-	It	.	.
16E-	will	.	.
=29	=29	=29	=29
16G	take	1r	.
16G	you	.	.
16G	a	.	.
16[B-	cou-	.	.
16B-]	_	.	.
16B-	-ple	.	.
16B-	of	.	.
16[c	vod-	.	.
16c]	_	.	.
16c	-ka	.	.
16d	and	.	.
16[c	to-	.	.
16c]	_	.	.
16G	-nics	.	.
16r	.	.	.
16F	To	.	.
=30	=30	=30	=30
16F	set	1r	.
16F	you	.	.
16F	on	.	.
16F	your	.	.
16A	feet	.	.
16c	a-	.	.
8[f	-gain	.	.
8f]	_	.	.
8r	.	.	.
4r	.	.	.
=31	=31	=31	=31
16b-	May-	1r	.
16b-	-be	.	.
16b-	you'll	.	.
16[b-	get	.	.
16b-]	_	.	.
16d	a	.	.
16d	rep-	.	.
16[d	-lace-	.	.
16d]	_	.	.
8.e	-ment	.	.
8.r	.	.	.
16G	There's	.	.
=32	=32	=32	=32
16A	plen-	1r	.
16A	-ty	.	.
16A	like	.	.
16[c	me	.	.
16c]	_	.	.
16c	to	.	.
16c	be	.	.
16[d	found	.	.
8d]	_	.	.
8r	.	.	.
4r	.	.	.
=33	=33	=33	=33
16G	Mon-	1r	.
8.G	-grels	.	.
8r	.	.	.
16B-	who	.	.
16[c	ain't	.	.
16c]	_	.	.
16c	got	.	.
16d	a	.	.
16[c	pen-	.	.
16c]	_	.	.
16G	-ny	.	.
8r	.	.	.
=34	=34	=34	=34
16F	Snif-	1r	.
16F	-fing	.	.
16F	for	.	.
16[F	tid-	.	.
16F]	_	.	.
16G	-bits	.	.
8E	like	.	.
8F	you	.	.
8r	.	.	.
8A	on	.	.
8c	the	.	.
=35	=35	=35	=35
4dd-	ground	1r	.
4f	_	.	.
4.g	_	.	.
8r	.	.	.
=36	=36	=36	=36
1r	.	8.cc	Aah
.	.	16b-	_
.	.	8a-	_
.	.	8g	_
.	.	4f	_
.	.	4r	.
=37	=37	=37	=37
2r	.	4dd-	Aah
.	.	4f	_
4r	.	2g	_
8r	.	.	.
8c	So	.	.
=38	=38	=38	=38
16f	good-	2a	Aah
8.f	-bye	.	.
16f	ye-	.	.
16c	-llow	.	.
8A	brick	.	.
4e	road	2r	.
8r	.	.	.
16c#	Where	.	.
16c#	the	.	.
=39	=39	=39	=39
16d	dogs	1r	.
8d	of	.	.
16c#	so-	.	.
16d	-ci-	.	.
16B-	-e-	.	.
16F	-ty	.	.
16[A	howl	.	.
4A]	_	.	.
8.r	.	.	.
16d	You	.	.
=40	=40	=40	=40
16a	can't	1r	.
16r	.	.	.
16a	plant	.	.
16r	.	.	.
16a	me	.	.
16b-	in	.	.
16a	your	.	.
16g	pen-	.	.
16r	.	.	.
8.d	-thouse	.	.
8.r	.	.	.
16d	I'm	.	.
=41	=41	=41	=41
16e	go-	1r	.
8e	-ing	.	.
16[e	back	.	.
16e]	_	.	.
16f	to	.	.
8g	my	.	.
8f	plough	.	.
8r	.	.	.
8.r	.	.	.
16[a	Back	.	.
=42	=42	=42	=42
16a]	_	1r	.
8a	to	.	.
16a	the	.	.
16f	how-	.	.
16d	-ling	.	.
16A	old	.	.
16[e	owl	.	.
16e]	_	.	.
16e	in	.	.
16e	the	.	.
16[e	woods	.	.
16e]	_	.	.
16r	.	.	.
8r	.	.	.
=43	=43	=43	=43
*M2/4	*	*M2/4	*
16f	Hun-	2r	.
16f	-ting	.	.
16f	the	.	.
16[d	hor-	.	.
16d]	_	.	.
16B-	-ny	.	.
8F	back	.	.
=44	=44	=44	=44
*M4/4	*	*M4/4	*
4.A-	toad	1r	.
8r	.	.	.
4r	.	.	.
16A-	Oh	.	.
8G	I've	.	.
16[F	fina-	.	.
=45	=45	=45	=45
16F]	_	1r	.
16F	-lly	.	.
16F	de-	.	.
16[A	-ci-	.	.
16A]	_	.	.
16A	-ded	.	.
8c	my	.	.
16f	fu-	.	.
16f	-ture	.	.
8f	lies	.	.
8.r	.	.	.
16d	Be-	.	.
=46	=46	=46	=46
*M2/4	*	*M2/4	*
8.f	-yond	2r	.
16f	the	.	.
16f	yel-	.	.
16g	-low	.	.
8e	brick	.	.
=47	=47	=47	=47
*M4/4	*	*M4/4	*
4f	road	4dd-	Aah
4r	.	4f	_
2r	.	4.g	_
.	.	8r	.
=48	=48	=48	=48
1r	.	8.cc	Aah
.	.	16b-	_
.	.	8a-	_
.	.	8g	_
.	.	4f	_
.	.	4r	.
=49	=49	=49	=49
1r	.	4dd-	Aah
.	.	4f	_
.	.	2g	_
=50	=50	=50	=50
1r	.	2a;	Aah
.	.	2r	.
r;	.	r;	.
r;	.	r;	.
*-	*-	*-	*-
!!!ENC: Nathaniel Condit-Schultz